X: 16563
T: Hamilton Rant
R: reel
M: 4/4
K: Dmajor
|:AF|DFAd B2AF|DFAd B2Ad|cdef gfed|edcB AGFE|
DFAd B2AF|DFAd B2Ad|cdef gece|d2f2 d2:|
|:fg|a2ab afdf|abaf dfed|cAce gfed|c2A2 A2fg|
a2ab afdf|abaf dfed|cAce gece|d2f2 d2:|

